static/assets/template/assets/img/icons/essential/detailed/Crypto_Wallet.svg

<svg height="144" viewBox="0 0 111 144" width="111" xmlns="http://www.w3.org/2000/svg"><g fill="none" fill-rule="evenodd" transform="translate(1 1)"><path d="m105.1 92.3v-20.7c0-4.9-4-8.9-8.9-8.9h-.2v-3.4c0-4.5-3.7-8.2-8.2-8.2h-7.8l-60.8.2.1-.2h-10c-4.6 0-8.3 3.7-8.3 8.3v3.4 25.4 43.9c0 4.9 4 8.9 8.9 8.9h86.3c4.9 0 8.9-4 8.9-8.9v-18.8h2.6v-20.9h-2.6z" fill-rule="nonzero"/><path d="m105.2 91.7v-20.3c0-4.7-3.9-8.5-8.7-8.5h-.2v.8c0-4.3-3.6-7.8-8-7.8h-7.6l-59.1.2.1-.2h-9.7c-4.5 0-8.1 3.5-8.1 7.8v3.2 24.1 41.5c0 4.7 3.9 8.5 8.7 8.5h83.9c4.8 0 8.7-3.8 8.7-8.5v-19h2.6v-21.8z" fill-rule="nonzero"/><g stroke-linecap="round" stroke-linejoin="round" stroke-width="3" transform="translate(0 51)"><path d="m80 0h7.8c3.8 0 7 2.6 7.9 6"/><path d="m.9 37.1v-28.8c0-4.6 3.7-8.3 8.3-8.3h2.1"/><path d="m105.1 62.2v18.8c0 4.9-4 8.9-8.9 8.9h-86.3c-4.9 0-8.9-4-8.9-8.9v-69.3"/><path d="m11 11.7h85.2c4.9 0 8.9 4 8.9 8.9v20.7"/><path d="m101 41.3h6.8v20.9h-24.3c-5.8 0-10.5-4.7-10.5-10.5s4.7-10.5 10.5-10.5h7.7"/><circle cx="83.3" cy="51.5" fill-rule="nonzero" r="4"/></g><g transform="translate(20 17)"><path d="m4 45.4c-2.4-4.3-3.8-9.3-3.8-14.6 0-16.5 13.4-29.9 29.9-29.9s29.9 13.4 29.9 29.9c0 5.5-1.5 10.6-4 15" fill-rule="nonzero"/><path d="m4 45.4c-2.4-4.3-3.8-9.3-3.8-14.6 0-16.5 13.4-29.9 29.9-29.9s29.9 13.4 29.9 29.9c0 5.5-1.5 10.6-4 15" fill-rule="nonzero"/><path d="m4 45.4c-2.4-4.3-3.8-9.3-3.8-14.6 0-16.5 13.4-29.9 29.9-29.9s29.9 13.4 29.9 29.9c0 5.5-1.5 10.6-4 15" stroke-linecap="round" stroke-linejoin="round" stroke-width="3"/><g fill-rule="nonzero" transform="translate(17 10)"><path d="m13.1 35.3c-.3 0-.6-.1-.9-.3-.2.2-.5.3-.9.3h-3.8c-.8 0-1.4-.6-1.5-1.3-2.1-.2-3.7-2-3.7-4.1v-18.5c0-2.1 1.6-3.9 3.7-4.1v-2c0-1.9 1.5-3.4 3.4-3.4 1.1 0 2.2.6 2.8 1.4.6-.9 1.6-1.4 2.8-1.4 1.9 0 3.4 1.5 3.4 3.4v2.4c1.5.4 2.8 1.1 3.7 2.1 1.4 1.4 2.1 3.1 2.1 5.1s-.6 3.6-1.8 4.9c1.7 1.1 3.2 2.9 3.2 6.1 0 4.2-2.6 6.9-7.1 7.8v.1c0 .8-.7 1.5-1.5 1.5zm2-8.9c2.2 0 2.2-.8 2.2-1.1 0-.4 0-1.1-2.4-1.1h-4.5v2.2zm-1.4-9.6c2.3 0 2.3-.7 2.3-1s0-1-1.9-1h-3.7v2z"/><path d="m15 3.4c1.1 0 1.9.9 1.9 1.9v3.6c1.8.3 3.2.9 4.2 1.9 1.1 1.1 1.6 2.4 1.6 4v.1c0 2.7-1.4 4.2-3.1 5.1 2.7 1.1 4.4 2.6 4.4 5.8v.1c0 3.8-2.8 6-7.1 6.4v1.4h-3.8v-1.3h-1.7v1.3h-3.8v-1.3h-1.1c-1.5 0-2.6-1.2-2.6-2.6v-18.5c0-1.5 1.2-2.6 2.6-2.6h1.1v-3.4c0-1.1.8-1.9 1.9-1.9s1.9.9 1.9 1.9v3.4h1.7v-3.4c0-1.1.8-1.9 1.9-1.9zm-6.1 14.9h4.8c2.3 0 3.8-.7 3.8-2.5v-.1c0-1.6-1.2-2.4-3.4-2.4h-5.2zm0 9.6h6.2c2.3 0 3.7-.8 3.7-2.6v-.1c0-1.6-1.2-2.6-3.9-2.6h-6zm6.1-27.5c-1 0-2 .3-2.8.9-.8-.5-1.8-.9-2.8-.9-2.7 0-4.9 2.2-4.9 4.9v.8c-2.1.8-3.7 2.9-3.7 5.3v18.5c0 2.6 1.7 4.7 4.1 5.4.5.9 1.5 1.5 2.6 1.5h3.8c.3 0 .6 0 .9-.1.3.1.6.1.9.1h3.8c1.3 0 2.3-.8 2.8-1.9 4.7-1.2 7.4-4.5 7.4-9v-.1c0-3.1-1.2-5.1-2.6-6.4 1-1.6 1.2-3.2 1.2-4.6v-.1c0-2.4-.8-4.5-2.5-6.2-.9-.9-2-1.6-3.3-2.1v-1.3c0-2.5-2.2-4.7-4.9-4.7z"/></g></g><g stroke-linecap="round" stroke-linejoin="round" stroke-width="3"><path d="m81.6 78.4h-20.7l-13.8 10.1"/><path d="m.9 127.9h13.7l21-20.5h16.7"/><path d="m47.4 125.4 8.9 6.4h48.2"/><circle cx="57.2" cy="107.5" fill-rule="nonzero" r="4"/><path d="m.9 80.9h21.9"/><circle cx="26.8" cy="80.9" fill-rule="nonzero" r="4"/><path d="m.9 99h10.1"/><circle cx="15.9" cy="99" fill-rule="nonzero" r="4"/><circle cx="43.7" cy="91" fill-rule="nonzero" r="4"/><circle cx="86.3" cy="78.8" fill-rule="nonzero" r="4"/><circle cx="44.6" cy="122.6" fill-rule="nonzero" r="4"/><path d="m73.1 17.2v-16.6"/><path d="m26 17.2v-16.6"/><path d="m50.4 8.2v-7.6"/></g></g></svg>

<?xml version="1.0" encoding="UTF-8"?>
<svg width="111px" height="144px" viewBox="0 0 111 144" version="1.1" xmlns="http://www.w3.org/2000/svg" xmlns:xlink="http://www.w3.org/1999/xlink">
    <!-- Generator: Sketch 51.2 (57519) - http://www.bohemiancoding.com/sketch -->
    <title>Crypto_Wallet</title>
    <desc>Created with Sketch.</desc>
    <defs></defs>
    <g id="Page-1" stroke="none" stroke-width="1" fill="none" fill-rule="evenodd">
        <g id="Crypto_Wallet" transform="translate(1.000000, 1.000000)">
            <path d="M105.1,92.3 L105.1,71.6 C105.1,66.7 101.1,62.7 96.2,62.7 L96,62.7 L96,59.3 C96,54.8 92.3,51.1 87.8,51.1 L80,51.1 L19.2,51.3 L19.3,51.1 L9.3,51.1 C4.7,51.1 1,54.8 1,59.4 L1,62.8 L1,88.2 L1,132.1 C1,137 5,141 9.9,141 L96.2,141 C101.1,141 105.1,137 105.1,132.1 L105.1,113.3 L107.7,113.3 L107.7,92.4 L105.1,92.4 L105.1,92.3 Z" id="Shape" class="fill-neutral" fill-rule="nonzero"></path>
            <path d="M105.2,91.7 L105.2,71.4 C105.2,66.7 101.3,62.9 96.5,62.9 L96.3,62.9 L96.3,63.7 C96.3,59.4 92.7,55.9 88.3,55.9 L80.7,55.9 L21.6,56.1 L21.7,55.9 L12,55.9 C7.5,55.9 3.9,59.4 3.9,63.7 L3.9,66.9 L3.9,91 L3.9,132.5 C3.9,137.2 7.8,141 12.6,141 L96.5,141 C101.3,141 105.2,137.2 105.2,132.5 L105.2,113.5 L107.8,113.5 L107.8,91.7 L105.2,91.7 Z" id="Shape" class="fill-primary-200" fill-rule="nonzero"></path>
            <g id="Group" transform="translate(0.000000, 51.000000)" class="stroke-primary" stroke-linecap="round" stroke-linejoin="round" stroke-width="3">
                <path d="M80,0 L87.8,0 C91.6,0 94.8,2.6 95.7,6" id="Shape"></path>
                <path d="M0.9,37.1 L0.9,8.3 C0.9,3.7 4.6,-4.54747351e-13 9.2,-4.54747351e-13 L11.3,-4.54747351e-13" id="Shape"></path>
                <path d="M105.1,62.2 L105.1,81 C105.1,85.9 101.1,89.9 96.2,89.9 L9.9,89.9 C5,89.9 1,85.9 1,81 L1,11.7" id="Shape"></path>
                <path d="M11,11.7 L96.2,11.7 C101.1,11.7 105.1,15.7 105.1,20.6 L105.1,41.3" id="Shape"></path>
                <path d="M101,41.3 L107.8,41.3 L107.8,62.2 L83.5,62.2 C77.7,62.2 73,57.5 73,51.7 C73,45.9 77.7,41.2 83.5,41.2 L91.2,41.2" id="Shape"></path>
                <circle id="Oval" class="fill-neutral" fill-rule="nonzero" cx="83.3" cy="51.5" r="4"></circle>
            </g>
            <g id="Group" transform="translate(20.000000, 17.000000)">
                <path d="M4,45.4 C1.6,41.1 0.2,36.1 0.2,30.8 C0.2,14.3 13.6,0.9 30.1,0.9 C46.6,0.9 60,14.3 60,30.8 C60,36.3 58.5,41.4 56,45.8" id="Shape" class="fill-neutral" fill-rule="nonzero"></path>
                <path d="M4,45.4 C1.6,41.1 0.2,36.1 0.2,30.8 C0.2,14.3 13.6,0.9 30.1,0.9 C46.6,0.9 60,14.3 60,30.8 C60,36.3 58.5,41.4 56,45.8" id="Shape" class="fill-primary-500" fill-rule="nonzero"></path>
                <path d="M4,45.4 C1.6,41.1 0.2,36.1 0.2,30.8 C0.2,14.3 13.6,0.9 30.1,0.9 C46.6,0.9 60,14.3 60,30.8 C60,36.3 58.5,41.4 56,45.8" id="Shape" class="stroke-primary" stroke-width="3" stroke-linecap="round" stroke-linejoin="round"></path>
                <g transform="translate(17.000000, 10.000000)" fill-rule="nonzero" id="Shape">
                    <path d="M13.1,35.3 C12.8,35.3 12.5,35.2 12.2,35 C12,35.2 11.7,35.3 11.3,35.3 L7.5,35.3 C6.7,35.3 6.1,34.7 6,34 C3.9,33.8 2.3,32 2.3,29.9 L2.3,11.4 C2.3,9.3 3.9,7.5 6,7.3 L6,5.3 C6,3.4 7.5,1.9 9.4,1.9 C10.5,1.9 11.6,2.5 12.2,3.3 C12.8,2.4 13.8,1.9 15,1.9 C16.9,1.9 18.4,3.4 18.4,5.3 L18.4,7.7 C19.9,8.1 21.2,8.8 22.1,9.8 C23.5,11.2 24.2,12.9 24.2,14.9 C24.2,16.9 23.6,18.5 22.4,19.8 C24.1,20.9 25.6,22.7 25.6,25.9 C25.6,30.1 23,32.8 18.5,33.7 L18.5,33.8 C18.5,34.6 17.8,35.3 17,35.3 L13.1,35.3 Z M15.1,26.4 C17.3,26.4 17.3,25.6 17.3,25.3 C17.3,24.9 17.3,24.2 14.9,24.2 L10.4,24.2 L10.4,26.4 L15.1,26.4 Z M13.7,16.8 C16,16.8 16,16.1 16,15.8 C16,15.5 16,14.8 14.1,14.8 L10.4,14.8 L10.4,16.8 L13.7,16.8 Z" class="fill-neutral"></path>
                    <path d="M15,3.4 C16.1,3.4 16.9,4.3 16.9,5.3 L16.9,8.9 C18.7,9.2 20.1,9.8 21.1,10.8 C22.2,11.9 22.7,13.2 22.7,14.8 L22.7,14.9 C22.7,17.6 21.3,19.1 19.6,20 C22.3,21.1 24,22.6 24,25.8 L24,25.9 C24,29.7 21.2,31.9 16.9,32.3 L16.9,33.7 L13.1,33.7 L13.1,32.4 L11.4,32.4 L11.4,33.7 L7.6,33.7 L7.6,32.4 L6.5,32.4 C5,32.4 3.9,31.2 3.9,29.8 L3.9,11.3 C3.9,9.8 5.1,8.7 6.5,8.7 L7.6,8.7 L7.6,5.3 C7.6,4.2 8.4,3.4 9.5,3.4 C10.6,3.4 11.4,4.3 11.4,5.3 L11.4,8.7 L13.1,8.7 L13.1,5.3 C13.1,4.2 13.9,3.4 15,3.4 Z M8.9,18.3 L13.7,18.3 C16,18.3 17.5,17.6 17.5,15.8 L17.5,15.7 C17.5,14.1 16.3,13.3 14.1,13.3 L8.9,13.3 L8.9,18.3 Z M8.9,27.9 L15.1,27.9 C17.4,27.9 18.8,27.1 18.8,25.3 L18.8,25.2 C18.8,23.6 17.6,22.6 14.9,22.6 L8.9,22.6 L8.9,27.9 Z M15,0.4 C14,0.4 13,0.7 12.2,1.3 C11.4,0.8 10.4,0.4 9.4,0.4 C6.7,0.4 4.5,2.6 4.5,5.3 L4.5,6.1 C2.4,6.9 0.8,9 0.8,11.4 L0.8,29.9 C0.8,32.5 2.5,34.6 4.9,35.3 C5.4,36.2 6.4,36.8 7.5,36.8 L11.3,36.8 C11.6,36.8 11.9,36.8 12.2,36.7 C12.5,36.8 12.8,36.8 13.1,36.8 L16.9,36.8 C18.2,36.8 19.2,36 19.7,34.9 C24.4,33.7 27.1,30.4 27.1,25.9 L27.1,25.8 C27.1,22.7 25.9,20.7 24.5,19.4 C25.5,17.8 25.7,16.2 25.7,14.8 L25.7,14.7 C25.7,12.3 24.9,10.2 23.2,8.5 C22.3,7.6 21.2,6.9 19.9,6.4 L19.9,5.1 C19.9,2.6 17.7,0.4 15,0.4 Z" class="fill-primary"></path>
                </g>
            </g>
            <polyline id="Shape" class="stroke-primary" stroke-width="3" stroke-linecap="round" stroke-linejoin="round" points="81.6 78.4 60.9 78.4 47.1 88.5"></polyline>
            <polyline id="Shape" class="stroke-primary" stroke-width="3" stroke-linecap="round" stroke-linejoin="round" points="0.9 127.9 14.6 127.9 35.6 107.4 52.3 107.4"></polyline>
            <polyline id="Shape" class="stroke-primary" stroke-width="3" stroke-linecap="round" stroke-linejoin="round" points="47.4 125.4 56.3 131.8 104.5 131.8"></polyline>
            <circle id="Oval" stroke-width="3" class="stroke-primary fill-neutral" fill-rule="nonzero" stroke-linecap="round" stroke-linejoin="round" cx="57.2" cy="107.5" r="4"></circle>
            <path d="M0.9,80.9 L22.8,80.9" id="Shape" class="stroke-primary" stroke-width="3" stroke-linecap="round" stroke-linejoin="round"></path>
            <circle id="Oval" stroke-width="3" class="stroke-primary fill-neutral" fill-rule="nonzero" stroke-linecap="round" stroke-linejoin="round" cx="26.8" cy="80.9" r="4"></circle>
            <path d="M0.9,99 L11,99" id="Shape" class="stroke-primary" stroke-width="3" stroke-linecap="round" stroke-linejoin="round"></path>
            <circle id="Oval" stroke-width="3" class="stroke-primary fill-neutral" fill-rule="nonzero" stroke-linecap="round" stroke-linejoin="round" cx="15.9" cy="99" r="4"></circle>
            <circle id="Oval" stroke-width="3" class="stroke-primary fill-neutral" fill-rule="nonzero" stroke-linecap="round" stroke-linejoin="round" cx="43.7" cy="91" r="4"></circle>
            <circle id="Oval" stroke-width="3" class="stroke-primary fill-neutral" fill-rule="nonzero" stroke-linecap="round" stroke-linejoin="round" cx="86.3" cy="78.8" r="4"></circle>
            <circle id="Oval" stroke-width="3" class="stroke-primary fill-neutral" fill-rule="nonzero" stroke-linecap="round" stroke-linejoin="round" cx="44.6" cy="122.6" r="4"></circle>
            <path d="M73.1,17.2 L73.1,0.6" id="Shape" class="stroke-primary" stroke-width="3" stroke-linecap="round" stroke-linejoin="round"></path>
            <path d="M26,17.2 L26,0.6" id="Shape" class="stroke-primary" stroke-width="3" stroke-linecap="round" stroke-linejoin="round"></path>
            <path d="M50.4,8.2 L50.4,0.6" id="Shape" class="stroke-primary" stroke-width="3" stroke-linecap="round" stroke-linejoin="round"></path>
        </g>
    </g>
</svg>
